common.blocks/social-icon/_clear/social-icon_clear_twitter-default.svg

<svg xmlns="http://www.w3.org/2000/svg" width="24" height="24" viewBox="0 0 24 24" xmlns:xlink="http://www.w3.org/1999/xlink">
  <defs>
    <path id="a" d="M14.8386205,4.3345925 C13.121324,4.9593613 12.0375191,6.56653272 12.1607283,8.32635271 L12.2021615,9.00454852 L11.5163333,8.92277249 C9.01834841,8.60330084 6.83438345,7.52167665 4.98188397,5.70624897 L4.0747153,4.80562238 L3.8424714,5.47073403 C3.34745388,6.95469624 3.6636545,8.52043447 4.69294203,9.57370963 C5.24138655,10.1559549 5.11926769,10.2388213 4.17066584,9.89209094 C3.8424714,9.78087555 3.55352946,9.69909953 3.52627079,9.73944237 C3.43032025,9.83648324 3.75960503,11.0980147 4.02019796,11.5963032 C4.37783176,12.2897639 5.10400283,12.9690501 5.90104646,13.3702977 L6.57379053,13.6908597 L5.77783725,13.7039439 C5.00914265,13.7039439 4.98188397,13.7181184 5.06366,14.0081507 C5.33842743,14.9098676 6.42332265,15.8650116 7.63142708,16.2826145 L8.48189771,16.5726467 L7.74155212,17.0153276 C6.64248239,17.6531806 5.35151159,18.0140854 4.06163114,18.0413441 C3.44449476,18.0555186 2.93530273,18.1111263 2.93530273,18.1525595 C2.93530273,18.2910336 4.61116601,19.0673606 5.58484584,19.3726577 C8.50915638,20.2732843 11.9819114,19.8851208 14.5911117,18.3466412 C16.4447015,17.2519329 18.297201,15.0756004 19.1629365,12.9690501 C19.6285147,11.847083 20.0962735,9.79505006 20.0962735,8.8115571 C20.0962735,8.17370413 20.1377067,8.09083777 20.9053109,7.3275949 C21.3588953,6.88382368 21.7852209,6.39970963 21.866997,6.26123557 C22.0043807,5.99846195 21.9902062,5.99846195 21.2902034,6.2339769 C20.1235322,6.64939909 19.9588898,6.59379139 20.5356833,5.97011293 C20.9609186,5.52634172 21.4690203,4.72275601 21.4690203,4.48724107 C21.4690203,4.44580789 21.2629447,4.51559009 21.0296105,4.63988965 C20.7821017,4.77836371 20.2336572,4.98661998 19.8215061,5.11091953 L19.0800701,5.34643447 L18.4073261,4.8895791 C18.0376984,4.63988965 17.5154223,4.36185117 17.2417452,4.2789848 C16.9266349,4.19175705 16.5352003,4.14923351 16.1437658,4.14923351 C15.6661938,4.14923351 15.1853508,4.21356398 14.8386205,4.3345925 Z"/>
  </defs>
  <g fill="none" fill-rule="evenodd">
    <use fill="#1DA1F2" xlink:href="#a"/>
  </g>
</svg>

<svg xmlns="http://www.w3.org/2000/svg" width="24" height="24" xmlns:xlink="http://www.w3.org/1999/xlink"><defs><path id="a" d="M14.839 4.335c-1.718.624-2.801 2.232-2.678 3.991l.041.679-.686-.082c-2.498-.32-4.682-1.401-6.534-3.217l-.907-.9-.233.665c-.495 1.484-.178 3.05.85 4.103.55.582.427.665-.521.318-.329-.111-.617-.193-.645-.153-.096.097.234 1.359.494 1.857.358.694 1.084 1.373 1.881 1.774l.673.32-.796.014c-.769 0-.796.014-.714.304.274.902 1.36 1.857 2.567 2.275l.85.29-.74.442c-1.099.638-2.39 1-3.68 1.026-.617.015-1.126.07-1.126.112 0 .138 1.676.914 2.65 1.22 2.924.9 6.397.512 9.006-1.026 1.854-1.095 3.706-3.271 4.572-5.378.466-1.122.933-3.174.933-4.157 0-.638.042-.721.81-1.484.453-.444.88-.928.961-1.067.137-.263.123-.263-.577-.027-1.166.415-1.331.36-.754-.264.425-.444.933-1.247.933-1.483 0-.041-.206.029-.44.153-.247.138-.795.347-1.207.47l-.742.236-.673-.456c-.37-.25-.892-.528-1.165-.611a4.273 4.273 0 0 0-1.098-.13c-.478 0-.959.065-1.305.186z"/></defs><use fill="#1DA1F2" xlink:href="#a" fill-rule="evenodd"/></svg>
